public/operators/nobg/betwinner.svg

<svg width="137" height="14" viewBox="0 0 137 14" fill="none" xmlns="http://www.w3.org/2000/svg">
<path fill-rule="evenodd" clip-rule="evenodd" d="M13.5422 6.8C14.1422 7.06667 14.6056 7.43 14.9322 7.89C15.2589 8.35 15.4222 8.9 15.4222 9.54C15.4222 11.02 14.8123 12.1333 13.5922 12.88C12.3722 13.6267 10.8023 14 8.88225 14H0.802246L3.60225 0H11.0222C12.6623 0 13.9089 0.289997 14.7622 0.87C15.6156 1.45 16.0422 2.27333 16.0422 3.34C16.0422 4.12667 15.8222 4.81666 15.3822 5.41C14.9422 6.00334 14.3289 6.46666 13.5422 6.8ZM7.58225 3.3L7.16225 5.38H9.56225C10.6023 5.38 11.1222 4.97334 11.1222 4.16C11.1222 3.88 11.0156 3.66667 10.8022 3.52C10.5889 3.37333 10.2822 3.3 9.88225 3.3H7.58225ZM9.14225 10.7C9.62225 10.7 10.0089 10.59 10.3022 10.37C10.5956 10.15 10.7422 9.83334 10.7422 9.42C10.7422 9.12667 10.6322 8.9 10.4122 8.74C10.1922 8.58 9.91558 8.5 9.58225 8.5H6.54225L6.10225 10.7H9.14225ZM22.9822 3.56L22.6622 5.2H28.5822L27.9022 8.6H21.9622L21.6022 10.44H28.6222L27.9022 14H16.2622L19.0622 0H30.4422L29.7222 3.56H22.9822ZM34.8222 3.66H30.7222L31.4622 0H44.3822L43.6422 3.66H39.5422L37.4822 14H32.7622L34.8222 3.66Z" fill="#FFCE06"/>
<path fill-rule="evenodd" clip-rule="evenodd" d="M70.086 0L62.806 14H57.746L56.946 6.62L53.106 14H48.046L46.366 0H51.026L51.926 7.98L56.086 0H60.426L61.226 8.1L65.446 0H70.086ZM71.426 0H76.146L73.346 14H68.626L71.426 0ZM92.226 0L89.426 14H85.546L81.526 7.48L80.226 14H75.626L78.426 0H82.306L86.326 6.52L87.626 0H92.226ZM108.306 0L105.506 14H101.626L97.606 7.48L96.306 14H91.706L94.506 0H98.386L102.406 6.52L103.706 0H108.306ZM114.506 3.56L114.186 5.2H120.106L119.426 8.6H113.486L113.126 10.44H120.146L119.426 14H107.786L110.586 0H121.966L121.246 3.56H114.506ZM136.146 4.6C136.146 5.84001 135.816 6.92333 135.156 7.85C134.496 8.77667 133.566 9.46666 132.366 9.92L134.706 14H129.806L127.826 10.48H126.666L125.966 14H121.246L124.046 0H130.326C132.166 0 133.596 0.403329 134.616 1.21C135.636 2.01667 136.146 3.14666 136.146 4.6ZM131.366 5.06C131.366 4.11333 130.779 3.64 129.606 3.64H128.026L127.366 6.92H129.306C129.959 6.92 130.466 6.75667 130.826 6.43C131.186 6.10333 131.366 5.64667 131.366 5.06Z" fill="white"/>
</svg>

<svg xmlns="http://www.w3.org/2000/svg" width="137" height="14" fill="none"><path fill="#FFCE06" fill-rule="evenodd" d="M13.54 6.8c.6.27 1.07.63 1.4 1.09.32.46.48 1.01.48 1.65 0 1.48-.6 2.6-1.83 3.34A8.9 8.9 0 0 1 8.9 14H.8L3.6 0h7.42c1.64 0 2.89.29 3.74.87.86.58 1.28 1.4 1.28 2.47 0 .79-.22 1.48-.66 2.07a4.33 4.33 0 0 1-1.84 1.39ZM7.58 3.3l-.42 2.08h2.4c1.04 0 1.56-.4 1.56-1.22 0-.28-.1-.5-.32-.64a1.62 1.62 0 0 0-.92-.22h-2.3Zm1.56 7.4c.48 0 .87-.11 1.16-.33.3-.22.44-.54.44-.95a.8.8 0 0 0-.33-.68c-.22-.16-.5-.24-.83-.24H6.54l-.44 2.2h3.04Zm13.84-7.14-.32 1.64h5.92l-.68 3.4h-5.94l-.36 1.84h7.02L27.9 14H16.26l2.8-14h11.38l-.72 3.56h-6.74Zm11.84.1h-4.1L31.46 0h12.92l-.74 3.66h-4.1L37.48 14h-4.72l2.06-10.34Z" clip-rule="evenodd"/><path fill="#fff" fill-rule="evenodd" d="M70.09 0 62.8 14h-5.06l-.8-7.38L53.1 14h-5.06L46.37 0h4.66l.9 7.98L56.09 0h4.34l.8 8.1L65.45 0h4.64Zm1.34 0h4.72l-2.8 14h-4.72l2.8-14Zm20.8 0-2.8 14h-3.88l-4.02-6.52-1.3 6.52h-4.6l2.8-14h3.88l4.02 6.52L87.63 0h4.6Zm16.08 0-2.8 14h-3.88L97.6 7.48 96.3 14h-4.6l2.8-14h3.88l4.02 6.52L103.7 0h4.6Zm6.2 3.56-.32 1.64h5.92l-.68 3.4h-5.94l-.36 1.84h7.02l-.72 3.56h-11.64l2.8-14h11.38l-.72 3.56h-6.74Zm21.64 1.04a5.46 5.46 0 0 1-3.78 5.32L134.7 14h-4.9l-1.98-3.52h-1.16l-.7 3.52h-4.72l2.8-14h6.28c1.84 0 3.27.4 4.29 1.21a4.08 4.08 0 0 1 1.53 3.39Zm-4.78.46c0-.95-.6-1.42-1.76-1.42h-1.58l-.66 3.28h1.94c.65 0 1.16-.16 1.52-.49.36-.33.54-.78.54-1.37Z" clip-rule="evenodd"/></svg>
